X: 41413
T: Twilight Zone, The
R: reel
M: 4/4
K: Dminor
FE|:DG (3GGG BAGF|EC (3CCC CB,G,A,|B,A,B,C DCDE|FEFG FEDC|
DG (3GGG BAGF|EC (3CCC CB,G,A,|~B,2 B,A, B,CDD|1 DGGF G2 FE:|2 DGGF G2 fe||
dG (3GGG FGAc|dG (3GGG fedc|dG (3GGG GFDE|~F3 E FGAc|
dG (3GGG FGAc|(3ddd dc defg|(3aaa ag (3fff ed|1 cAGF E2 fe:|2 cAGF E2||

